svg/projector_screen_off.svg

<svg xmlns="http://www.w3.org/2000/svg" viewBox="0 0 24 24"><path d="M13 14.89v1.7l4.21 4.2-1.42 1.42-2.79-2.8V22h-2v-2.59l-2.79 2.8-1.42-1.42 4.21-4.2V14H5V6.89L1.11 3l1.28-1.27 19.72 19.73-1.27 1.27zm6-.89V5h1c.55 0 1-.45 1-1V3c0-.55-.45-1-1-1H5.2l12 12z"/></svg>

<svg xmlns="http://www.w3.org/2000/svg" id="mdi-projector-screen-off" viewBox="0 0 24 24"><path d="M13 14.89V16.59L17.21 20.79L15.79 22.21L13 19.41V22H11V19.41L8.21 22.21L6.79 20.79L11 16.59V14H5V6.89L1.11 3L2.39 1.73L22.11 21.46L20.84 22.73L13 14.89M19 14V5H20C20.55 5 21 4.55 21 4V3C21 2.45 20.55 2 20 2H5.2L17.2 14H19Z" /></svg>
